src/lib/packages/icons/src/assets/line/money-convert.svg

<svg width="24" height="24" viewBox="0 0 24 24" fill="none" xmlns="http://www.w3.org/2000/svg">
<path d="M3.00097 11.8C2.97397 11.8 2.94602 11.799 2.91802 11.796C2.50602 11.751 2.20902 11.38 2.25402 10.969C2.61702 7.65199 4.619 4.79503 7.609 3.32703C7.841 3.21303 8.11699 3.22701 8.33599 3.36401C8.55599 3.50101 8.68999 3.74198 8.68999 4.00098V7.05103C8.68999 7.46503 8.35399 7.80103 7.93999 7.80103C7.52599 7.80103 7.18999 7.46503 7.18999 7.05103V5.31006C5.26699 6.64806 4.00596 8.74896 3.74596 11.132C3.70396 11.515 3.37797 11.8 3.00097 11.8ZM21.082 12.205C20.666 12.162 20.3 12.457 20.255 12.869C19.995 15.252 18.734 17.353 16.811 18.691V16.95C16.811 16.536 16.475 16.2 16.061 16.2C15.647 16.2 15.311 16.536 15.311 16.95V20C15.311 20.259 15.445 20.5 15.665 20.637C15.786 20.712 15.923 20.75 16.061 20.75C16.174 20.75 16.287 20.725 16.392 20.673C19.382 19.206 21.384 16.349 21.747 13.031C21.791 12.62 21.493 12.25 21.082 12.205ZM10.25 8.5V4.5C10.25 3.091 11.091 2.25 12.5 2.25H18.5C19.909 2.25 20.75 3.091 20.75 4.5V8.5C20.75 9.909 19.909 10.75 18.5 10.75H12.5C11.091 10.75 10.25 9.909 10.25 8.5ZM11.75 8.5C11.75 9.089 11.911 9.25 12.5 9.25H18.5C19.089 9.25 19.25 9.089 19.25 8.5V4.5C19.25 3.911 19.089 3.75 18.5 3.75H12.5C11.911 3.75 11.75 3.911 11.75 4.5V8.5ZM13.75 15.5V19.5C13.75 20.909 12.909 21.75 11.5 21.75H5.49999C4.09099 21.75 3.24999 20.909 3.24999 19.5V15.5C3.24999 14.091 4.09099 13.25 5.49999 13.25H11.5C12.909 13.25 13.75 14.091 13.75 15.5ZM12.25 15.5C12.25 14.911 12.089 14.75 11.5 14.75H5.49999C4.91099 14.75 4.74999 14.911 4.74999 15.5V19.5C4.74999 20.089 4.91099 20.25 5.49999 20.25H11.5C12.089 20.25 12.25 20.089 12.25 19.5V15.5ZM8.49999 16.145C7.80999 16.145 7.24999 16.705 7.24999 17.395C7.24999 18.085 7.80999 18.645 8.49999 18.645C9.18999 18.645 9.74999 18.085 9.74999 17.395C9.74999 16.705 9.18999 16.145 8.49999 16.145ZM15.5 7.62695C16.19 7.62695 16.75 7.06695 16.75 6.37695C16.75 5.68695 16.19 5.12695 15.5 5.12695C14.81 5.12695 14.25 5.68695 14.25 6.37695C14.25 7.06695 14.81 7.62695 15.5 7.62695Z" fill="currentColor"/>
</svg>

<svg xmlns="http://www.w3.org/2000/svg" width="24" height="24" fill="none"><path fill="currentColor" d="M3.001 11.8a.75.75 0 0 1-.747-.831 9.638 9.638 0 0 1 5.355-7.642.75.75 0 0 1 1.081.674v3.05a.75.75 0 0 1-1.5 0v-1.74a8.136 8.136 0 0 0-3.444 5.821.751.751 0 0 1-.745.668Zm18.081.405a.749.749 0 0 0-.827.664 8.136 8.136 0 0 1-3.444 5.822V16.95a.75.75 0 0 0-1.5 0V20a.75.75 0 0 0 1.081.673 9.635 9.635 0 0 0 5.355-7.642.751.751 0 0 0-.665-.826ZM10.25 8.5v-4c0-1.409.841-2.25 2.25-2.25h6c1.409 0 2.25.841 2.25 2.25v4c0 1.409-.841 2.25-2.25 2.25h-6c-1.409 0-2.25-.841-2.25-2.25Zm1.5 0c0 .589.161.75.75.75h6c.589 0 .75-.161.75-.75v-4c0-.589-.161-.75-.75-.75h-6c-.589 0-.75.161-.75.75v4Zm2 7v4c0 1.409-.841 2.25-2.25 2.25h-6c-1.409 0-2.25-.841-2.25-2.25v-4c0-1.409.841-2.25 2.25-2.25h6c1.409 0 2.25.841 2.25 2.25Zm-1.5 0c0-.589-.161-.75-.75-.75h-6c-.589 0-.75.161-.75.75v4c0 .589.161.75.75.75h6c.589 0 .75-.161.75-.75v-4Zm-3.75.645a1.25 1.25 0 1 0 0 2.5 1.25 1.25 0 0 0 0-2.5Zm7-8.518a1.25 1.25 0 1 0 0-2.501 1.25 1.25 0 0 0 0 2.5Z"/></svg>
